X:1
T:She's Like the Swallow
M:3/4
L:1/4
K:A
 z2 B,| F2 F| F E F| B,2 D| E2 F| B2 c| d c B| F F G| A2 F| B2 c| d- c B|\
 A3/2 A/2 A| D2 E| F2 B| A F E| D- B, A,| B,2 z|
